X:1
T:Vals till Elisabeth
R:Vals
C:Nils Pettersson
O:Billinge, Skåne
M:3/4
L:1/8
K:G
D2 |: "G"GF GB AG | "D7"A^G Ac BA | "G"B^A Bd ge |  d4 B2 |
"D"FA de fe | "D7"dc BA GF | "G"GF GB AG | "D7"FE DC B,A, :|
|: "G"G2 B2 d2 | "C"e3 ceg | "G"d3 Bdg | "D7"A3 dfe | d2 cdBA | "G"G2 FGBd | g4 g2 :|

